fs/panel_top_contract_20_filled.svg

<svg viewBox="0 0 20 20" fill="none" xmlns="http://www.w3.org/2000/svg" height="1em" width="1em">
  <path d="M10.5 8.82585L11.3737 9.82437C11.5556 10.0322 11.8714 10.0532 12.0793 9.87141C12.2871 9.68956 12.3081 9.37368 12.1263 9.16586L10.3763 7.16586C10.2814 7.05736 10.1442 6.99512 10 6.99512C9.85583 6.99512 9.71866 7.05736 9.62372 7.16586L7.87372 9.16586C7.69188 9.37368 7.71294 9.68956 7.92075 9.87141C8.12857 10.0532 8.44445 10.0322 8.6263 9.82437L9.50001 8.82583L9.50001 12.5049C9.50001 12.781 9.72387 13.0049 10 13.0049C10.2762 13.0049 10.5 12.781 10.5 12.5049L10.5 8.82585ZM4 16C2.89543 16 2 15.1046 2 14V6C2 4.89543 2.89543 4 4 4H16C17.1046 4 18 4.89543 18 6V14C18 15.1046 17.1046 16 16 16H4ZM3 14C3 14.5523 3.44772 15 4 15H16C16.5523 15 17 14.5523 17 14V9H13.1664C13.1049 8.82388 13.0093 8.65636 12.8789 8.50736L11.1289 6.50736C10.8441 6.18184 10.4326 5.99512 10 5.99512C9.56748 5.99512 9.15599 6.18184 8.87115 6.50736L7.12116 8.50736C6.99078 8.65636 6.89517 8.82388 6.83367 9H3V14Z" fill="#212121"/>
</svg>

<svg viewBox="0 0 20 20" fill="none" xmlns="http://www.w3.org/2000/svg" height="1em" width="1em">
  <path d="m10.5 8.826.874.998a.5.5 0 0 0 .752-.658l-1.75-2a.5.5 0 0 0-.752 0l-1.75 2a.5.5 0 0 0 .752.658l.874-.998v3.679a.5.5 0 0 0 1 0v-3.68ZM4 16a2 2 0 0 1-2-2V6a2 2 0 0 1 2-2h12a2 2 0 0 1 2 2v8a2 2 0 0 1-2 2H4Zm-1-2a1 1 0 0 0 1 1h12a1 1 0 0 0 1-1V9h-3.834a1.495 1.495 0 0 0-.287-.493l-1.75-2a1.5 1.5 0 0 0-2.258 0l-1.75 2c-.13.15-.226.317-.287.493H3v5Z" fill="#212121"/>
</svg>
